svgs/sharp-regular/rectangle.svg

<svg xmlns="http://www.w3.org/2000/svg" viewBox="0 0 512 512"><!--! Font Awesome Pro 6.6.0 by @fontawesome - https://fontawesome.com License - https://fontawesome.com/license (Commercial License) Copyright 2024 Fonticons, Inc. --><path d="M464 112l0 288L48 400l0-288 416 0zM48 64L0 64l0 48L0 400l0 48 48 0 416 0 48 0 0-48 0-288 0-48-48 0L48 64z"/></svg>

<svg xmlns="http://www.w3.org/2000/svg" viewBox="0 0 512 512"><!--! Font Awesome Pro 6.4.0 by @fontawesome - https://fontawesome.com License - https://fontawesome.com/license (Commercial License) Copyright 2023 Fonticons, Inc. --><path d="M464 112V400H48V112H464zM48 64H0v48V400v48H48 464h48V400 112 64H464 48z"/></svg>
